**kern	**kern	**dynam
*part1	*part1	*part1
*staff2	*staff1	*
*I"Piano	*	*
*clefF4	*clefG2	*
*k[f#c#]	*k[f#c#]	*
=1	=1	=1
*	*tremolo	*
4r	12A 12d 12f#X 12aL	.
.	12A 12d 12f#X 12a	.
.	12A 12d 12f#X 12a	.
(8.DL	12A 12d 12f#X 12a	.
.	12A 12d 12f#X 12a	.
.	12A 12d 12f#X 12aJ	.
16EJk	.	.
4F#)	12A 12d 12f# 12aL	.
.	12A 12d 12f# 12a	.
.	12A 12d 12f# 12a	.
4AAA	12A 12d 12f# 12a	.
.	12A 12d 12f# 12a	.
.	12A 12d 12f# 12aJ	.
=	=	=
4r	12A 12d 12f# 12aL	f
.	12A 12d 12f# 12a	.
.	12A 12d 12f# 12a	.
(8.F#L	12A 12d 12f# 12a	.
.	12A 12d 12f# 12a	.
.	12A 12d 12f# 12aJ	.
16GJk	.	.
4A)	12d 12f# 12a 12ddL	.
.	12d 12f# 12a 12dd	.
.	12d 12f# 12a 12dd	.
4AAA	12d 12f# 12a 12dd	.
.	12d 12f# 12a 12dd	.
.	12d 12f# 12a 12ddJ	.
=	=	=
4r	12d 12e 12b-X 12ddL	.
.	12d 12e 12b-X 12dd	.
.	12d 12e 12b-X 12dd	.
(8.GL	12d 12e 12b-X 12dd	.
.	12d 12e 12b-X 12dd	.
.	12d 12e 12b-X 12ddJ	.
16AJk	.	.
4B-X)	12d 12e 12b- 12ddL	.
.	12d 12e 12b- 12dd	.
.	12d 12e 12b- 12dd	.
4GG	12d 12e 12b- 12dd	.
.	12d 12e 12b- 12dd	.
.	12d 12e 12b- 12ddJ	.
=	=	=
4r	12d 12e 12b-X 12ddL	.
.	12d 12e 12b-X 12dd	.
.	12d 12e 12b-X 12ddJ	.
(8.EL	12c# 12e 12a 12cc#L	>
.	12c# 12e 12a 12cc#	.
.	12c# 12e 12a 12cc#J	.
16F#Jk	.	.
!	!LO:TX:b:i:t=dimin.	!
4G)	12c# 12e 12a 12cc#L	]
.	12c# 12e 12a 12cc#	.
.	12c# 12e 12a 12cc#	.
4AA	12c# 12e 12a 12cc#	.
.	12c# 12e 12a 12cc#	.
.	12c# 12e 12a 12cc#J	.
=	=	=
4r	12dL 12f# 12a 12dd	fz
.	12A 12d 12f# 12a	p
.	12AJ 12d 12f# 12a	.
(8.DL	12A 12d 12f# 12aL	.
.	12A 12d 12f# 12a	.
.	12A 12d 12f# 12aJ	.
16EJk	.	.
4F#)	12A 12d 12f# 12aL	.
.	12A 12d 12f# 12a	.
.	12A 12d 12f# 12aJ	.
4DD	12A 12d 12f# 12aL	fz
.	12A 12d 12f# 12a	.
.	12A 12d 12f# 12aJ	.
=	=	=
!	!LO:TX:a:i:t=cres.	!
4r	12A 12d 12f# 12aL	<
.	12A 12d 12f# 12a	.
.	12A 12d 12f# 12a	.
(8.DL	12A 12d 12f# 12a	.
.	12A 12d 12f# 12a	.
.	12A 12d 12f# 12aJ	.
16EJk	.	.
4F#)	12A 12d 12f# 12aL	.
.	12A 12d 12f# 12a	.
.	12A 12d 12f# 12a	.
4DD	12A 12d 12f# 12a	.
.	12A 12d 12f# 12a	.
.	12A 12d 12f# 12aJ	.
*	*Xtremolo	*
=	=	=
[1D [1A [1d	[1f#^^ [1a [1dd [1ff#	[ f
=	=	=
4D] 4A] 4d]	4f#] 4a] 4dd] 4ff#]	.
8.r	4r	.
(16D	.	p
4C#	2r	.
8.r	.	.
16BB	.	.
=	=	=
2C#)	[1B^ [1e [1g	p
2r	.	.
=	=	=
*-	*-	*-
!!!system-decoration: {(s1,s2)}
